X:1
T:The Honest Working Man
M:4/4
L:1/4
K:C
 z2 z G| c e d B| c G3/2 G/2 E| F A G F| E C2 D/2E/2| E E E C| D G G A|\
 B c B A| G3 G/2G/2| c e d B| c G2 E| F A G F| E C2 D| E E D C| D G G F|\
 E C C C| C3 z|
